**kern	**kern	**kern	**kern
*staff3	*staff4	*staff1	*staff2
*clefF4	*clefF4	*clefG2	*clefG2
*k[f#c#]	*k[f#c#]	*k[f#c#]	*k[f#c#]
*M2/4	*M2/4	*M2/4	*M2/4
*D:	*D:	*D:	*D:
=-	=-	=-	=-
*clefG2	*clefG2	*	*
8fL	[2B-	(4ddd	2r
8b-J	.	.	.
8e-L	.	4ccc)	.
8b-J	.	.	.
=477	=477	=477	=477
8dL	2B-]	4.bb-	2r
8b-J	.	.	.
8fL	.	.	.
8b-J	.	(8aa	.
=478	=478	=478	=478
8e-L	[2B-	4gg)	2r
8b-J	.	.	.
8e-L	.	8ggL	.
8b-J	.	8bb-J	.
=479	=479	=479	=479
8dL	2B-]	(2ff	2r
8b-J	.	.	.
8fL	.	.	.
8b-J	.	.	.
=480	=480	=480	=480
8c#L	4B-	(4ee')	2r
8gJ	.	.	.
8c#L	4B-	4ee')	.
8gJ	.	.	.
=481	=481	=481	=481
8c#L	2A	4ee	2r
8gJ	.	.	.
8c#L	.	[4aa	.
8gJ	.	.	.
=482	=482	=482	=482
8dL	4A	4aa]	2r
8f#J	.	.	.
8gL	4A	(8bbL	.
8eJ	.	8ccc#J)	.
*	*clefF4	*	*
=483	=483	=483	=483
2r	4d'	4ddd	2r
.	4D'	4r	.
*clefF4	*	*	*
=484	=484	=484	=484
8FL	[2BB-	(4dd 4ddd	2r
8B-J	.	.	.
8E-L	.	4cc 4ccc	.
8B-J	.	.	.
=485	=485	=485	=485
8DL	2BB-]	4.b- 4.bb-	2r
8B-J	.	.	.
8FL	.	.	.
8B-J	.	8a) 8aa	.
=486	=486	=486	=486
8E-L	[2BB-	4g 4gg	2r
8B-J	.	.	.
8E-L	.	8b-L 8gg	.
8B-J	.	8bb-J	.
=487	=487	=487	=487
8DL	2BB-]	(2f 2ff	2r
8B-J	.	.	.
8FL	.	.	.
8B-J	.	.	.
=488	=488	=488	=488
8C#L	4BB-	(4e') 4ee'	2r
8GJ	.	.	.
8C#L	4BB-	4e') 4ee'	.
8GJ	.	.	.
=489	=489	=489	=489
8C#L	2AA	4e 4ee	2r
8GJ	.	.	.
8C#L	.	[4a [4aa	.
8GJ	.	.	.
=490	=490	=490	=490
8DL	4AA	4a] 4aa]	2r
8F#J	.	.	.
8CL	4AA	8bL 8bb	.
8F#J	.	8ccJ 8ccc	.
=491	=491	=491	=491
8BBL 8D	[2GG	([4dd 4bb [4ddd	2r
8GJ	.	.	.
8CL	.	4dd] 4aa 4ddd]	.
8GJ	.	.	.
=492	=492	=492	=492
8BBL	2GG]	4.gg	2r
8GJ	.	.	.
8DL	.	.	.
8GJ	.	8ff#	.
=493	=493	=493	=493
8CL	[2GG	4ee)	2r
8GJ	.	.	.
8CL	.	(8eeL	.
8GJ	.	8ggJ)	.
=494	=494	=494	=494
8BBL	2GG]	2dd	2r
8GJ	.	.	.
8DL	.	.	.
8GJ	.	.	.
=495	=495	=495	=495
8CL	4GG	4ee-	2r
8GJ	.	.	.
8BB-L	4E-	4d- 4e- 4dd-	.
8GJ	.	.	.
=496	=496	=496	=496
8CL	[2AA- 2E-	4c 4e- 4cc	2r
8A-J	.	.	.
8E-L	.	4b-	.
8GJ	.	.	.
=497	=497	=497	=497
8CL	2AA-_	4.e- 4.a-	2r
8A-J	.	.	.
8E-L	.	.	.
8A-J	.	8g	.
=498	=498	=498	=498
8D-L	2AA-_	4f	2r
8A-J	.	.	.
8D-L	.	(8fL	.
8A-J	.	8a-'J)	.
=499	=499	=499	=499
8CL	2AA-_	4e-	2r
8A-J	.	.	.
8E-L	.	4r	.
8A-J	.	.	.
=500	=500	=500	=500
8D-L	2AA-_	4ff'	2r
8A-J	.	.	.
8D-L	.	(8ffL	.
8A-J	.	8aa-'J)	.
=501	=501	=501	=501
8CL	2AA-]	4ee-	2r
8A-J	.	.	.
8E-L	.	4r	.
8A-J	.	.	.
=502	=502	=502	=502
8D-L	[2AA-	4f'	2r
8A-J	.	.	.
8D-L	.	(8fL	.
8A-J	.	8a-'J)	.
=503	=503	=503	=503
8CL	2AA-_	4e-	2r
8A-J	.	.	.
8E-L	.	4r	.
8A-J	.	.	.
=504	=504	=504	=504
8D-L	2AA-]	4ff-'	2r
8A-J	.	.	.
8D-L	.	(8ff-L	.
8A-J	.	8aa-'J)	.
=505	=505	=505	=505
8CL	[2AA-	4ee-	2r
8A-J	.	.	.
8E-L	.	4r	.
8A-J	.	.	.
=506	=506	=506	=506
8CL	2AA-_	2r	2r
8A-J	.	.	.
8E-L	.	.	.
8A-J	.	.	.
=507	=507	=507	=507
8C#L	2GG#]	2r	2r
8G#J	.	.	.
8EL	.	.	.
8G#J	.	.	.
=508	=508	=508	=508
8C#L	[2AA	2r	2r
8AJ	.	.	.
8EL	.	.	.
8AJ	.	.	.
=509	=509	=509	=509
8DL	2AA]	2r	2r
8AJ	.	.	.
8F#L	.	.	.
8AJ	.	.	.
=510	=510	=510	=510
8DL	[2AA	4ff#'	2r
8AJ	.	.	.
8DL	.	(8ff#L	.
8AJ	.	8aa'J)	.
=511	=511	=511	=511
8C#L	2AA_	4ee	2r
8AJ	.	.	.
8EL	.	4r	.
8AJ	.	.	.
=512	=512	=512	=512
8DL	2AA]	4f#'	2r
8AJ	.	.	.
8DL	.	(8f#L	.
8AJ	.	8a'J)	.
=513	=513	=513	=513
8C#L	2AA	4e	2r
8AJ	.	.	.
8EL	.	4r	.
8AJ	.	.	.
=514	=514	=514	=514
2r	4D 4A	4ff#'	2r
.	4r	(8ff#L	.
.	.	8aa'J)	.
=515	=515	=515	=515
2r	4C# 4A	4ee'	2r
.	4r	(8eeL	.
.	.	8aa'J)	.
=516	=516	=516	=516
2r	4D 4A	4ff#'	2r
.	4r	(8ff#L	.
.	.	8aa'J)	.
=517	=517	=517	=517
2r	4BB 4D 4G	4dd'	2r
.	4r	(8ddL	.
.	.	8gg'J)	.
*	*clefG2	*	*
=518	=518	=518	=518
2r	4c# 4g	4ee'	2r
.	4r	(8eeL	.
.	.	8gg'J)	.
=519	=519	=519	=519
2r	4B 4g	4dd'	2r
.	4r	(8ddL	.
.	.	8gg'J)	.
=520	=520	=520	=520
2r	4c# 4g	4ee'	2r
.	4r	(8eeL	.
.	.	8gg'J)	.
=521	=521	=521	=521
2r	4A# 4c# 4f#	4cc#'	2r
.	4r	(8cc#L	.
.	.	8ff#'J)	.
*	*clefF4	*	*
=522	=522	=522	=522
2r	4BB 4F#	4dd'	2r
.	4r	(8ddL	.
.	.	8ff#'J)	.
=523	=523	=523	=523
2r	4GG 4E	4b'	2r
.	4r	(8bL	.
.	.	8ee'J)	.
=524	=524	=524	=524
2r	4A 4e 4g	4cc#'	2r
.	4r	(8cc#L	.
.	.	8a'J)	.
=525	=525	=525	=525
2r	4d 4f#	4dd'	2r
.	4r	(8ff#L	.
.	.	8ee'J)	.
=526	=526	=526	=526
2r	4BB 4F#	4dd'	2r
.	4r	(8ddL	.
.	.	8ff#'J)	.
=527	=527	=527	=527
2r	4GG 4E	4b'	2r
.	4r	(8bL	.
.	.	8ee'J)	.
=528	=528	=528	=528
2r	4A 4e 4g	4cc#'	2r
.	4r	(8cc#L	.
.	.	8a'J)	.
=529	=529	=529	=529
2r	2r	2r	2r
=530	=530	=530	=530
*-	*-	*-	*-
